Yaru++/apps/16/jockey.svg

<svg height="16" width="16" xmlns="http://www.w3.org/2000/svg">
  <g fill="#808080">
    <path d="m4.5 4c-.277 0-.5.223-.5.5v7c0 .277.223.5.5.5h7c.277 0 .5-.223.5-.5v-7c0-.277-.223-.5-.5-.5zm.5 1h6v6h-6z"/>
    <rect height="3" rx=".5" width="2" x="4"/>
    <rect height="3" rx=".5" width="2" x="7"/>
    <rect height="3" rx=".5" width="2" x="10"/>
    <rect height="3" rx=".5" width="2" x="4" y="13"/>
    <rect height="3" rx=".5" width="2" x="7" y="13"/>
    <rect height="3" rx=".5" width="2" x="10" y="13"/>
    <g transform="rotate(-90)">
      <rect height="3" rx=".5" width="2" x="-6" y="13"/>
      <rect height="3" rx=".5" width="2" x="-9" y="13"/>
      <rect height="3" rx=".5" width="2" x="-12" y="13"/>
      <rect height="3" rx=".5" width="2" x="-6"/>
      <rect height="3" rx=".5" width="2" x="-9"/>
      <rect height="3" rx=".5" width="2" x="-12"/>
    </g>
    <path d="m4 2c-1.108 0-2 .892-2 2v8c0 1.108.892 2 2 2h8c1.108 0 2-.892 2-2v-8c0-1.108-.892-2-2-2zm.5 1h7c.831 0 1.5.669 1.5 1.5v7c0 .831-.669 1.5-1.5 1.5h-7c-.831 0-1.5-.669-1.5-1.5v-7c0-.831.669-1.5 1.5-1.5z"/>
  </g>
</svg>

<?xml version="1.0" encoding="UTF-8" standalone="no"?>
<svg
   xmlns:osb="http://www.openswatchbook.org/uri/2009/osb"
   xmlns:dc="http://purl.org/dc/elements/1.1/"
   xmlns:cc="http://creativecommons.org/ns#"
   xmlns:rdf="http://www.w3.org/1999/02/22-rdf-syntax-ns#"
   xmlns:svg="http://www.w3.org/2000/svg"
   xmlns="http://www.w3.org/2000/svg"
   xmlns:sodipodi="http://sodipodi.sourceforge.net/DTD/sodipodi-0.dtd"
   xmlns:inkscape="http://www.inkscape.org/namespaces/inkscape"
   height="16"
   id="svg7384"
   version="1.1"
   width="16"
   sodipodi:docname="jockey-symbolic.svg"
   inkscape:version="0.92.4 (5da689c313, 2019-01-14)">
  <sodipodi:namedview
     pagecolor="#ffffff"
     bordercolor="#666666"
     borderopacity="1"
     objecttolerance="10"
     gridtolerance="10"
     guidetolerance="10"
     inkscape:pageopacity="0"
     inkscape:pageshadow="2"
     inkscape:window-width="1296"
     inkscape:window-height="704"
     id="namedview7367"
     showgrid="false"
     inkscape:zoom="1"
     inkscape:cx="4.1248208"
     inkscape:cy="4.6357233"
     inkscape:window-x="70"
     inkscape:window-y="27"
     inkscape:window-maximized="1"
     inkscape:current-layer="svg7384">
    <inkscape:grid
       type="xygrid"
       id="grid7912" />
  </sodipodi:namedview>
  <metadata
     id="metadata20854">
    <rdf:RDF>
      <cc:Work
         rdf:about="">
        <dc:title></dc:title>
        <dc:format>image/svg+xml</dc:format>
        <dc:type
           rdf:resource="http://purl.org/dc/dcmitype/StillImage" />
      </cc:Work>
    </rdf:RDF>
  </metadata>
  <defs
     id="defs7386">
    <linearGradient
       id="linearGradient5606"
       osb:paint="solid">
      <stop
         id="stop5608"
         offset="0"
         style="stop-color:#000000;stop-opacity:1;" />
    </linearGradient>
    <linearGradient
       id="linearGradient4526"
       osb:paint="solid">
      <stop
         id="stop4528"
         offset="0"
         style="stop-color:#ffffff;stop-opacity:1;" />
    </linearGradient>
    <linearGradient
       id="linearGradient3600-4"
       osb:paint="gradient">
      <stop
         id="stop3602-7"
         offset="0"
         style="stop-color:#f4f4f4;stop-opacity:1" />
      <stop
         id="stop3604-6"
         offset="1"
         style="stop-color:#dbdbdb;stop-opacity:1" />
    </linearGradient>
  </defs>
  <g
     id="layer9"
     label="status"
     style="display:inline"
     transform="translate(-733.00024,207)" />
  <g
     id="layer2"
     style="display:inline"
     transform="translate(-492.00004,-160)" />
  <g
     id="layer4"
     style="display:inline"
     transform="translate(-492.00004,-160)" />
  <g
     id="g1812"
     style="display:inline"
     transform="translate(-492.00004,-160)" />
  <g
     id="g6217"
     style="display:inline"
     transform="translate(-492.00004,-160)" />
  <g
     id="layer3"
     style="display:inline"
     transform="translate(-492.00004,-160)" />
  <g
     id="layer1"
     style="display:inline"
     transform="translate(-492.00004,-160)" />
  <path
     style="opacity:1;fill:#808080;fill-opacity:1;stroke:none;stroke-width:8;stroke-linecap:round;stroke-linejoin:round;stroke-miterlimit:4;stroke-dasharray:none;stroke-dashoffset:0;stroke-opacity:1"
     d="M 4.5,4 C 4.223,4 4,4.223 4,4.5 v 7 C 4,11.777 4.223,12 4.5,12 h 7 c 0.277,0 0.5,-0.223 0.5,-0.5 v -7 C 12,4.223 11.777,4 11.5,4 Z M 5,5 h 6 v 6 H 5 Z"
     id="rect5102"
     inkscape:connector-curvature="0" />
  <rect
     style="opacity:1;fill:#808080;fill-opacity:1;stroke:none;stroke-width:8;stroke-linecap:round;stroke-linejoin:round;stroke-miterlimit:4;stroke-dasharray:none;stroke-dashoffset:0;stroke-opacity:1"
     id="rect5104"
     width="2"
     height="3"
     x="4"
     y="0"
     rx="0.5"
     ry="0.5" />
  <rect
     style="display:inline;opacity:1;fill:#808080;fill-opacity:1;stroke:none;stroke-width:8;stroke-linecap:round;stroke-linejoin:round;stroke-miterlimit:4;stroke-dasharray:none;stroke-dashoffset:0;stroke-opacity:1"
     id="rect5104-6"
     width="2"
     height="3"
     x="7"
     y="0"
     rx="0.5"
     ry="0.5" />
  <rect
     style="display:inline;opacity:1;fill:#808080;fill-opacity:1;stroke:none;stroke-width:8;stroke-linecap:round;stroke-linejoin:round;stroke-miterlimit:4;stroke-dasharray:none;stroke-dashoffset:0;stroke-opacity:1"
     id="rect5104-0"
     width="2"
     height="3"
     x="10"
     y="0"
     rx="0.5"
     ry="0.5" />
  <rect
     style="display:inline;opacity:1;fill:#808080;fill-opacity:1;stroke:none;stroke-width:8;stroke-linecap:round;stroke-linejoin:round;stroke-miterlimit:4;stroke-dasharray:none;stroke-dashoffset:0;stroke-opacity:1"
     id="rect5104-8"
     width="2"
     height="3"
     x="4"
     y="13"
     rx="0.5"
     ry="0.5" />
  <rect
     style="display:inline;opacity:1;fill:#808080;fill-opacity:1;stroke:none;stroke-width:8;stroke-linecap:round;stroke-linejoin:round;stroke-miterlimit:4;stroke-dasharray:none;stroke-dashoffset:0;stroke-opacity:1"
     id="rect5104-6-7"
     width="2"
     height="3"
     x="7"
     y="13"
     rx="0.5"
     ry="0.5" />
  <rect
     style="display:inline;opacity:1;fill:#808080;fill-opacity:1;stroke:none;stroke-width:8;stroke-linecap:round;stroke-linejoin:round;stroke-miterlimit:4;stroke-dasharray:none;stroke-dashoffset:0;stroke-opacity:1"
     id="rect5104-0-9"
     width="2"
     height="3"
     x="10"
     y="13"
     rx="0.5"
     ry="0.5" />
  <rect
     style="display:inline;opacity:1;fill:#808080;fill-opacity:1;stroke:none;stroke-width:8;stroke-linecap:round;stroke-linejoin:round;stroke-miterlimit:4;stroke-dasharray:none;stroke-dashoffset:0;stroke-opacity:1"
     id="rect5104-2"
     width="2"
     height="3"
     x="-6"
     y="13"
     rx="0.5"
     ry="0.5"
     transform="rotate(-90)" />
  <rect
     style="display:inline;opacity:1;fill:#808080;fill-opacity:1;stroke:none;stroke-width:8;stroke-linecap:round;stroke-linejoin:round;stroke-miterlimit:4;stroke-dasharray:none;stroke-dashoffset:0;stroke-opacity:1"
     id="rect5104-6-0"
     width="2"
     height="3"
     x="-9"
     y="13"
     rx="0.5"
     ry="0.5"
     transform="rotate(-90)" />
  <rect
     style="display:inline;opacity:1;fill:#808080;fill-opacity:1;stroke:none;stroke-width:8;stroke-linecap:round;stroke-linejoin:round;stroke-miterlimit:4;stroke-dasharray:none;stroke-dashoffset:0;stroke-opacity:1"
     id="rect5104-0-2"
     width="2"
     height="3"
     x="-12"
     y="13"
     rx="0.5"
     ry="0.5"
     transform="rotate(-90)" />
  <rect
     style="display:inline;opacity:1;fill:#808080;fill-opacity:1;stroke:none;stroke-width:8;stroke-linecap:round;stroke-linejoin:round;stroke-miterlimit:4;stroke-dasharray:none;stroke-dashoffset:0;stroke-opacity:1"
     id="rect5104-8-3"
     width="2"
     height="3"
     x="-6"
     y="3.6739403e-16"
     rx="0.5"
     ry="0.5"
     transform="rotate(-90)" />
  <rect
     style="display:inline;opacity:1;fill:#808080;fill-opacity:1;stroke:none;stroke-width:8;stroke-linecap:round;stroke-linejoin:round;stroke-miterlimit:4;stroke-dasharray:none;stroke-dashoffset:0;stroke-opacity:1"
     id="rect5104-6-7-7"
     width="2"
     height="3"
     x="-9"
     y="5.5109107e-16"
     rx="0.5"
     ry="0.5"
     transform="rotate(-90)" />
  <rect
     style="display:inline;opacity:1;fill:#808080;fill-opacity:1;stroke:none;stroke-width:8;stroke-linecap:round;stroke-linejoin:round;stroke-miterlimit:4;stroke-dasharray:none;stroke-dashoffset:0;stroke-opacity:1"
     id="rect5104-0-9-5"
     width="2"
     height="3"
     x="-12"
     y="7.3478806e-16"
     rx="0.5"
     ry="0.5"
     transform="rotate(-90)" />
  <path
     style="opacity:1;fill:#808080;fill-opacity:1;stroke:none;stroke-width:8;stroke-linecap:round;stroke-linejoin:round;stroke-miterlimit:4;stroke-dasharray:none;stroke-dashoffset:0;stroke-opacity:1"
     d="M 4,2 C 2.892,2 2,2.892 2,4 v 8 c 0,1.108 0.892,2 2,2 h 8 c 1.108,0 2,-0.892 2,-2 V 4 C 14,2.892 13.108,2 12,2 Z m 0.5,1 h 7 C 12.331,3 13,3.669 13,4.5 v 7 c 0,0.831 -0.669,1.5 -1.5,1.5 h -7 C 3.669,13 3,12.331 3,11.5 v -7 C 3,3.669 3.669,3 4.5,3 Z"
     id="rect5228"
     inkscape:connector-curvature="0" />
</svg>
